X: 31715
T: Pasucáis De Xuan Martín
R: slip jig
M: 9/8
K: Dmajor
Bcd cBA B3|Bcd cBA F3|FDF ECE F2D|FDF ECE D3:|
|:DEF DEF E3|AFD GFE F2D|B,CD ECE F2D|FDF ECE D3:|

